public/icons/tokens/weth.svg

<svg xmlns="http://www.w3.org/2000/svg" width="512" height="512" style="shape-rendering:geometricPrecision;text-rendering:geometricPrecision;image-rendering:optimizeQuality;fill-rule:evenodd;clip-rule:evenodd"><path style="opacity:.966" fill="#fdfdfd" d="M511.5 233.5v45c-10.335 86.552-52.335 152.719-126 198.5-33.335 19.057-69.002 30.557-107 34.5h-45c-40.262-4.087-77.595-16.754-112-38 60.034 1.743 120.034.91 180-2.5 88.252-15.921 145.419-66.754 171.5-152.5 16.153-70.045 1.487-132.711-44-188L378.5 82a484.327 484.327 0 0 0-41-33c-59.807-31.562-121.14-34.895-184-10C82.516 72.676 41.35 128.509 30 206.5c-2.309 28.166.358 55.832 8 83 16.837 39.032 39.67 74.032 68.5 105-18.822 2.829-36.488 8.829-53 18C3.514 345.07-11.32 270.403 9 188.5 36.833 96.667 96.667 36.833 188.5 9c93.927-22.27 176.261-.937 247 64 44.021 44.546 69.354 98.046 76 160.5Z"/><path style="opacity:.998" fill="#030202" d="M121.5 473.5c-26.424-16.088-49.09-36.421-68-61 16.512-9.171 34.178-15.171 53-18-28.83-30.968-51.663-65.968-68.5-105-7.642-27.168-10.309-54.834-8-83C41.35 128.509 82.516 72.676 153.5 39c62.86-24.895 124.193-21.562 184 10a484.327 484.327 0 0 1 41 33l50.5 48.5c45.487 55.289 60.153 117.955 44 188-26.081 85.746-83.248 136.579-171.5 152.5a2097.055 2097.055 0 0 1-180 2.5Z"/><path style="opacity:1" fill="#e91d78" d="M213.5 41.5c42.44-4.324 81.773 4.51 118 26.5-83.911-20.49-155.411.676-214.5 63.5-17.343 21.008-30.843 44.341-40.5 70a776.173 776.173 0 0 1-23.5-12c7.425-37.685 24.925-69.852 52.5-96.5 30.715-28.19 66.715-45.357 108-51.5Z"/><path style="opacity:1" fill="#fefefe" d="M261.5 78.5c80.496-.858 140.329 33.475 179.5 103 21.905 46.207 25.571 93.874 11 143-20.833 59.5-61 99.667-120.5 120.5-79.649 21.72-147.149 2.22-202.5-58.5-43.602-56.696-53.936-119.029-31-187 31.08-71.906 85.58-112.24 163.5-121Z"/><path style="opacity:1" fill="#e51b75" d="M48.5 211.5a233.682 233.682 0 0 1 22.5 11 208.307 208.307 0 0 1-3.5 26c-6.14-3.1-12.307-6.1-18.5-9-.5-9.327-.666-18.661-.5-28Z"/><path style="opacity:1" fill="#030303" d="M151.5 304.5a96.254 96.254 0 0 1-19-1c-7.5-24.332-15.5-48.499-24-72.5a81.224 81.224 0 0 1 22 .5c4.157 13.653 8.323 27.319 12.5 41l14-42a88.665 88.665 0 0 1 18.5-1 1023.96 1023.96 0 0 0 13.5 42 416.125 416.125 0 0 0 12.5-41c7.341-.166 14.674 0 22 .5a1351.267 1351.267 0 0 0-24 73.5h-19a625.177 625.177 0 0 0-14.5-42 625.177 625.177 0 0 0-14.5 42Z"/><path style="opacity:1" fill="#020202" d="M291.5 230.5v17h-39v11h35v16c-11.845-.328-23.512.005-35 1v11a380.934 380.934 0 0 0 39 1v16h-59v-73h59Z"/><path style="opacity:1" fill="#030303" d="M341.5 248.5a756.853 756.853 0 0 0-1 55h-19a756.853 756.853 0 0 0-1-55h-22v-18h65v18h-22Z"/><path style="opacity:1" fill="#020202" d="M372.5 230.5h20c-.327 9.182.007 18.182 1 27h26v-27h20v74h-20v-28h-26c-.993 8.818-1.327 17.818-1 27h-20v-73Z"/><path style="opacity:1" fill="#747474" d="M372.5 230.5c6.813-.991 13.813-1.325 21-1v28c-.993-8.818-1.327-17.818-1-27h-20Z"/><path style="opacity:1" fill="#767676" d="M419.5 230.5c6.813-.991 13.813-1.325 21-1 .331 25.172-.002 50.172-1 75v-74h-20Z"/><path style="opacity:1" fill="#333" d="M320.5 248.5a756.853 756.853 0 0 1 1 55h19a756.853 756.853 0 0 1 1-55v56h-21v-56Z"/><path style="opacity:1" fill="#e22176" d="M51.5 264.5a321.742 321.742 0 0 1 15.5 7 290.578 290.578 0 0 0 2 24 191.124 191.124 0 0 1 4 22c-11.06-16.117-18.227-33.783-21.5-53Z"/><path style="opacity:1" fill="#868686" d="M287.5 258.5c.989 5.475 1.322 11.142 1 17h-36c11.488-.995 23.155-1.328 35-1v-16Z"/><path style="opacity:1" fill="#515151" d="M291.5 230.5h-59v73h59v-16a380.934 380.934 0 0 1-39-1h40v18h-61v-75a900.97 900.97 0 0 1 60 1Z"/><path style="opacity:1" fill="#454545" d="M393.5 276.5v28c-7.187.325-14.187-.009-21-1h20c-.327-9.182.007-18.182 1-27Z"/><path style="opacity:1" fill="#adadad" d="M132.5 303.5a96.254 96.254 0 0 0 19 1c-2.982.665-6.148.998-9.5 1-3.576-.015-6.742-.682-9.5-2Z"/></svg>

<?xml version="1.0" encoding="UTF-8"?>
<!DOCTYPE svg PUBLIC "-//W3C//DTD SVG 1.1//EN" "http://www.w3.org/Graphics/SVG/1.1/DTD/svg11.dtd">
<svg xmlns="http://www.w3.org/2000/svg" version="1.1" width="512px" height="512px" style="shape-rendering:geometricPrecision; text-rendering:geometricPrecision; image-rendering:optimizeQuality; fill-rule:evenodd; clip-rule:evenodd" xmlns:xlink="http://www.w3.org/1999/xlink">
<g><path style="opacity:0.966" fill="#fdfdfd" d="M 511.5,233.5 C 511.5,248.5 511.5,263.5 511.5,278.5C 501.165,365.052 459.165,431.219 385.5,477C 352.165,496.057 316.498,507.557 278.5,511.5C 263.5,511.5 248.5,511.5 233.5,511.5C 193.238,507.413 155.905,494.746 121.5,473.5C 181.534,475.243 241.534,474.41 301.5,471C 389.752,455.079 446.919,404.246 473,318.5C 489.153,248.455 474.487,185.789 429,130.5C 412.167,114.333 395.333,98.1667 378.5,82C 365.412,70.2411 351.745,59.2411 337.5,49C 277.693,17.4384 216.36,14.105 153.5,39C 82.5165,72.6759 41.3498,128.509 30,206.5C 27.6912,234.666 30.3579,262.332 38,289.5C 54.8365,328.532 77.6699,363.532 106.5,394.5C 87.6784,397.329 70.0118,403.329 53.5,412.5C 3.51414,345.07 -11.3192,270.403 9,188.5C 36.8333,96.6667 96.6667,36.8333 188.5,9C 282.427,-13.2704 364.761,8.06289 435.5,73C 479.521,117.546 504.854,171.046 511.5,233.5 Z"/></g>
<g><path style="opacity:0.998" fill="#030202" d="M 121.5,473.5 C 95.076,457.412 72.4093,437.079 53.5,412.5C 70.0118,403.329 87.6784,397.329 106.5,394.5C 77.6699,363.532 54.8365,328.532 38,289.5C 30.3579,262.332 27.6912,234.666 30,206.5C 41.3498,128.509 82.5165,72.6759 153.5,39C 216.36,14.105 277.693,17.4384 337.5,49C 351.745,59.2411 365.412,70.2411 378.5,82C 395.333,98.1667 412.167,114.333 429,130.5C 474.487,185.789 489.153,248.455 473,318.5C 446.919,404.246 389.752,455.079 301.5,471C 241.534,474.41 181.534,475.243 121.5,473.5 Z"/></g>
<g><path style="opacity:1" fill="#e91d78" d="M 213.5,41.5 C 255.94,37.1765 295.273,46.0098 331.5,68C 247.589,47.5095 176.089,68.6762 117,131.5C 99.6567,152.508 86.1567,175.841 76.5,201.5C 68.5886,197.628 60.7552,193.628 53,189.5C 60.4247,151.815 77.9247,119.648 105.5,93C 136.215,64.8098 172.215,47.6431 213.5,41.5 Z"/></g>
<g><path style="opacity:1" fill="#fefefe" d="M 261.5,78.5 C 341.996,77.6422 401.829,111.975 441,181.5C 462.905,227.707 466.571,275.374 452,324.5C 431.167,384 391,424.167 331.5,445C 251.851,466.72 184.351,447.22 129,386.5C 85.3977,329.804 75.0644,267.471 98,199.5C 129.08,127.594 183.58,87.2608 261.5,78.5 Z"/></g>
<g><path style="opacity:1" fill="#e51b75" d="M 48.5,211.5 C 56.1776,214.755 63.6776,218.422 71,222.5C 70.3859,231.194 69.2192,239.86 67.5,248.5C 61.3591,245.4 55.1925,242.4 49,239.5C 48.5002,230.173 48.3335,220.839 48.5,211.5 Z"/></g>
<g><path style="opacity:1" fill="#030303" d="M 151.5,304.5 C 145.077,304.791 138.744,304.458 132.5,303.5C 125,279.168 117,255.001 108.5,231C 115.856,230.169 123.189,230.335 130.5,231.5C 134.657,245.153 138.823,258.819 143,272.5C 147.667,258.5 152.333,244.5 157,230.5C 163.076,229.524 169.242,229.19 175.5,229.5C 179.691,243.574 184.191,257.574 189,271.5C 193.861,258.08 198.028,244.414 201.5,230.5C 208.841,230.334 216.174,230.5 223.5,231C 214.796,255.28 206.796,279.78 199.5,304.5C 193.167,304.5 186.833,304.5 180.5,304.5C 176.171,290.348 171.338,276.348 166,262.5C 160.662,276.348 155.829,290.348 151.5,304.5 Z"/></g>
<g><path style="opacity:1" fill="#020202" d="M 291.5,230.5 C 291.5,236.167 291.5,241.833 291.5,247.5C 278.5,247.5 265.5,247.5 252.5,247.5C 252.5,251.167 252.5,254.833 252.5,258.5C 264.167,258.5 275.833,258.5 287.5,258.5C 287.5,263.833 287.5,269.167 287.5,274.5C 275.655,274.172 263.988,274.505 252.5,275.5C 252.5,279.167 252.5,282.833 252.5,286.5C 265.323,287.495 278.323,287.829 291.5,287.5C 291.5,292.833 291.5,298.167 291.5,303.5C 271.833,303.5 252.167,303.5 232.5,303.5C 232.5,279.167 232.5,254.833 232.5,230.5C 252.167,230.5 271.833,230.5 291.5,230.5 Z"/></g>
<g><path style="opacity:1" fill="#030303" d="M 341.5,248.5 C 340.503,266.659 340.17,284.992 340.5,303.5C 334.167,303.5 327.833,303.5 321.5,303.5C 321.83,284.992 321.497,266.659 320.5,248.5C 313.167,248.5 305.833,248.5 298.5,248.5C 298.5,242.5 298.5,236.5 298.5,230.5C 320.167,230.5 341.833,230.5 363.5,230.5C 363.5,236.5 363.5,242.5 363.5,248.5C 356.167,248.5 348.833,248.5 341.5,248.5 Z"/></g>
<g><path style="opacity:1" fill="#020202" d="M 372.5,230.5 C 379.167,230.5 385.833,230.5 392.5,230.5C 392.173,239.682 392.507,248.682 393.5,257.5C 402.167,257.5 410.833,257.5 419.5,257.5C 419.5,248.5 419.5,239.5 419.5,230.5C 426.167,230.5 432.833,230.5 439.5,230.5C 439.5,255.167 439.5,279.833 439.5,304.5C 432.833,304.5 426.167,304.5 419.5,304.5C 419.5,295.167 419.5,285.833 419.5,276.5C 410.833,276.5 402.167,276.5 393.5,276.5C 392.507,285.318 392.173,294.318 392.5,303.5C 385.833,303.5 379.167,303.5 372.5,303.5C 372.5,279.167 372.5,254.833 372.5,230.5 Z"/></g>
<g><path style="opacity:1" fill="#747474" d="M 372.5,230.5 C 379.313,229.509 386.313,229.175 393.5,229.5C 393.5,238.833 393.5,248.167 393.5,257.5C 392.507,248.682 392.173,239.682 392.5,230.5C 385.833,230.5 379.167,230.5 372.5,230.5 Z"/></g>
<g><path style="opacity:1" fill="#767676" d="M 419.5,230.5 C 426.313,229.509 433.313,229.175 440.5,229.5C 440.831,254.672 440.498,279.672 439.5,304.5C 439.5,279.833 439.5,255.167 439.5,230.5C 432.833,230.5 426.167,230.5 419.5,230.5 Z"/></g>
<g><path style="opacity:1" fill="#333333" d="M 320.5,248.5 C 321.497,266.659 321.83,284.992 321.5,303.5C 327.833,303.5 334.167,303.5 340.5,303.5C 340.17,284.992 340.503,266.659 341.5,248.5C 341.5,267.167 341.5,285.833 341.5,304.5C 334.5,304.5 327.5,304.5 320.5,304.5C 320.5,285.833 320.5,267.167 320.5,248.5 Z"/></g>
<g><path style="opacity:1" fill="#e22176" d="M 51.5,264.5 C 56.7197,266.693 61.8863,269.026 67,271.5C 67.3351,279.529 68.0018,287.529 69,295.5C 70.7752,302.824 72.1086,310.158 73,317.5C 61.9393,301.383 54.7726,283.717 51.5,264.5 Z"/></g>
<g><path style="opacity:1" fill="#868686" d="M 287.5,258.5 C 288.489,263.975 288.822,269.642 288.5,275.5C 276.5,275.5 264.5,275.5 252.5,275.5C 263.988,274.505 275.655,274.172 287.5,274.5C 287.5,269.167 287.5,263.833 287.5,258.5 Z"/></g>
<g><path style="opacity:1" fill="#515151" d="M 291.5,230.5 C 271.833,230.5 252.167,230.5 232.5,230.5C 232.5,254.833 232.5,279.167 232.5,303.5C 252.167,303.5 271.833,303.5 291.5,303.5C 291.5,298.167 291.5,292.833 291.5,287.5C 278.323,287.829 265.323,287.495 252.5,286.5C 265.833,286.5 279.167,286.5 292.5,286.5C 292.5,292.5 292.5,298.5 292.5,304.5C 272.167,304.5 251.833,304.5 231.5,304.5C 231.5,279.5 231.5,254.5 231.5,229.5C 251.674,229.17 271.674,229.503 291.5,230.5 Z"/></g>
<g><path style="opacity:1" fill="#454545" d="M 393.5,276.5 C 393.5,285.833 393.5,295.167 393.5,304.5C 386.313,304.825 379.313,304.491 372.5,303.5C 379.167,303.5 385.833,303.5 392.5,303.5C 392.173,294.318 392.507,285.318 393.5,276.5 Z"/></g>
<g><path style="opacity:1" fill="#adadad" d="M 132.5,303.5 C 138.744,304.458 145.077,304.791 151.5,304.5C 148.518,305.165 145.352,305.498 142,305.5C 138.424,305.485 135.258,304.818 132.5,303.5 Z"/></g>
</svg>
